X: 1446
T: The Sailor's Cravat
M:C|
L:1/8
N:"collected by McFadden"
B:O'Neill's 1446
Z:"Transcribed by Bob Safranek, rjs@gsp.org"
Z:Ornament (~) is a mordant
K:D
d2 (fe) dcBd | ABFB   ADFA   | d2 (fe) dcBd | AFDF (~GE) E z |
d2 (fe) dcBd | ABFB   ADFA   | d2 (fe) dcBd | AFEG  FD   D2  ||
AddA    BAFA | defd (Be) e z | AddA    BcdB | AFGE (FD)  D2  |
AddA    BAFA | defd (Be) e z | AddA    Bgfe | dBAG  FD   D2  |]


